build/Karasa-Jaga/scalable/places/group-apps.svg

<svg enable-background="new 0 0 22 22" height="22" viewBox="0 0 22 22" width="22" xmlns="http://www.w3.org/2000/svg"><path d="m18.084964 1.1246697-1.110748 1.1900865-.555374-.1586782-11.0678046 8.290936-2.737199 2.816538 2.2611644-.991739 9.4016842-7.1405186.634712.5950432-5.910763 9.5206924-1.229756 2.062816 2.023147-1.507443 6.624815-10.2744131 1.388435-2.1421558-.357026-.5553737 1.150417-1.2297561c-.031466-.2998918-.141348-.4904613-.515704-.4760346zm-15.3917865.1983478v10.9091265l2.1818253-2.2611643a.65549998.65549998 0 0 1 .079335-.039672l.6743823-.5157042v-.8727301l.5157042.5157042 2.380173-1.78513-5.8314235-5.9504329zm16.3438555 2.3008339c-.163168.019287-.332244.073948-.476035.1586782a.3548813.3548813 0 0 0 -.158678.1983477l-3.490921 10.9884657a.3548813.3548813 0 0 0 0 .07934l-.158678 2.776869a.3548813.3548813 0 0 0 0 .158678.3548813.3548813 0 0 0 .03967.07934.3548813.3548813 0 0 0 .03967.03967.3548813.3548813 0 0 0 .03967.03967.3548813.3548813 0 0 0 .03967.03967.3548813.3548813 0 0 0 .119008.03967.3548813.3548813 0 0 0 .119009 0 .3548813.3548813 0 0 0 .03967 0 .3548813.3548813 0 0 0 .119009-.03967.3548813.3548813 0 0 0 .03967-.03967.3548813.3548813 0 0 0 .07934-.07934l1.388434-2.221495a.3548813.3548813 0 0 0 .03967-.07934l3.530586-11.0281362a.3548813.3548813 0 0 0 0-.1586782.3548813.3548813 0 0 0 -.03967-.079339c-.175491-.4204377-.457626-.7315702-.79339-.8330607-.160739-.0485859-.352538-.0589558-.515704-.0396695zm-8.806641 5.3950591-2.3801729 1.8247995 1.9041384 1.943808 1.6264515-2.578521zm2.856208 2.9355465-1.666122 2.538851 2.102487 2.142156h-3.7686075l-1.586782 1.190086a.65549998.65549998 0 0 1 -.9520692-.83306l.1983477-.357026h-1.7851298v-4.125633l-.3570259.277687a.65549998.65549998 0 0 1 -.1190087.07934l-2.2611643.991739a.65549998.65549998 0 0 1 -.1983478.07934v5.633076h17.8116285l-3.173564-3.252903-1.309095 2.102486a.68045386.68045386 0 0 1 -.03967.03967c.0025-.0035-.04234.0431-.03967.03967.0027-.0034-.0028.04297 0 .03967s-.04259.0031-.03967 0c.003-.0031-.04272.04272-.03967.03967.0031-.0031-.04285.04259-.03967.03967.003-.0031-.0031.04272 0 .03967.0031-.0031-.04285.003-.03967 0 .0031-.003-.04297.04247-.03967.03967a.68045386.68045386 0 0 1 -.119009.07934c.0042-.0023-.04398.04183-.03967.03967.0043-.0021-.04411.0019-.03967 0 .0044-.0019-.04411.04145-.03967.03967.0045-.0018-.04424.0015-.03967 0 .0045-.0015-.04436.0013-.03967 0 .0047-.0013-.04436.04078-.03967.03967.0047-.0011-.04436.000902-.03967 0 .0047-.000903-.08417.000692-.07934 0 .0045-.000767-.04424.000576-.03967 0 .0061-.00034-.08543 0-.07934 0 .0023-.000096-.02761-.000254-.03967 0-.01206.000253-.04196 0-.03967 0 .0045 0-.04424-.000193-.03967 0 .0045.000192-.04424-.000385-.03967 0 .0045.000385-.04424-.000576-.03967 0 .0024.000346-.0271.0021-.03967 0s-.04208-.000452-.03967 0c.0047.000902-.04436-.0011-.03967 0 .0047.0011-.04436-.04094-.03967-.03967.0047.0013-.04424-.0015-.03967 0 .0045.0015-.04411-.0018-.03967 0 .0045.0018-.04411-.04157-.03967-.03967.0044.0019-.04398-.0021-.03967 0 .0043.0021-.04385-.04196-.03967-.03967a.68045386.68045386 0 0 1 -.119009-.07934c.0033.0028-.04284-.04259-.03967-.03967.0017.0014-.03116.0075-.03967 0 .0031.0031-.003-.04284 0-.03967.0017.0014-.03116.0075-.03967 0 .0031.0031-.003-.04285 0-.03967.0015.0015-.03218.0085-.03967 0 .0031.0031-.003-.04285 0-.03967.003.0031-.04247-.04297-.03967-.03967a.68045386.68045386 0 0 1 -.03967-.03967c.0038.0057-.04309-.08518-.03967-.07934.0034.0058-.04271-.04576-.03967-.03967.0031.0061-.04232-.08556-.03967-.07934.0027.0062-.0023-.04615 0-.03967a.68045386.68045386 0 0 1 -.03967-.07934c.0014.0059-.001-.0853 0-.07934.001.0059-.000688-.04576 0-.03967.000687.0061-.000346-.08543 0-.07934.000343.0061 0-.04576 0-.03967 0 .0061.000343-.04576 0-.03967-.000346.0061.000687-.08543 0-.07934-.000688.0061.001-.04564 0-.03967-.001.0059.0014-.0853 0-.07934l.158678-2.538851c.000679.0061-.00034-.08543 0-.07934.00034.0061 0-.04576 0-.03967 0 .0061.00034-.04576 0-.03967-.00034.0061.000679-.08543 0-.07934a.68045386.68045386 0 0 1 .03967-.119008l.396695-1.190087-1.586782-1.626451z" fill="#bebebe"/></svg>

<?xml version="1.0" encoding="UTF-8" standalone="no"?>
<!-- Generator: Adobe Illustrator 14.0.0, SVG Export Plug-In . SVG Version: 6.00 Build 43363)  -->

<svg
   xmlns:dc="http://purl.org/dc/elements/1.1/"
   xmlns:cc="http://creativecommons.org/ns#"
   xmlns:rdf="http://www.w3.org/1999/02/22-rdf-syntax-ns#"
   xmlns:svg="http://www.w3.org/2000/svg"
   xmlns="http://www.w3.org/2000/svg"
   xmlns:sodipodi="http://sodipodi.sourceforge.net/DTD/sodipodi-0.dtd"
   xmlns:inkscape="http://www.inkscape.org/namespaces/inkscape"
   id="Layer_1"
   enable-background="new 0 0 22 22"
   xml:space="preserve"
   height="22px"
   viewBox="0 0 22 22"
   width="22px"
   version="1.1"
   y="0px"
   x="0px"
   inkscape:version="0.48.3.1 r9886"
   sodipodi:docname="group-apps.svg"><defs
   id="defs9" /><sodipodi:namedview
   pagecolor="#ffffff"
   bordercolor="#666666"
   borderopacity="1"
   objecttolerance="10"
   gridtolerance="10"
   guidetolerance="10"
   inkscape:pageopacity="0"
   inkscape:pageshadow="2"
   inkscape:window-width="1366"
   inkscape:window-height="714"
   id="namedview7"
   showgrid="false"
   inkscape:zoom="10.727273"
   inkscape:cx="11"
   inkscape:cy="11"
   inkscape:window-x="0"
   inkscape:window-y="22"
   inkscape:window-maximized="1"
   inkscape:current-layer="Layer_1" /><metadata
   id="metadata3049"><rdf:RDF><cc:Work
       rdf:about=""><dc:format>image/svg+xml</dc:format><dc:type
         rdf:resource="http://purl.org/dc/dcmitype/StillImage" /></cc:Work></rdf:RDF></metadata>
<path
   inkscape:connector-curvature="0"
   style="fill:#ffffff;fill-opacity:1;stroke:none"
   d="M 18.084964,1.1246697 16.974216,2.3147562 16.418842,2.156078 5.3510374,10.447014 2.6138384,13.263552 4.8750028,12.271813 14.276687,5.1312944 14.911399,5.7263376 9.000636,15.24703 7.77088,17.309846 9.794027,15.802403 16.418842,5.5279899 17.807277,3.3858341 17.450251,2.8304604 18.600668,1.6007043 C 18.569202,1.3008125 18.45932,1.110243 18.084964,1.1246697 z m -15.3917865,0.1983478 0,10.9091265 2.1818253,-2.2611643 a 0.65549998,0.65549998 0 0 1 0.079335,-0.039672 l 0.6743823,-0.5157042 0,-0.8727301 0.5157042,0.5157042 2.380173,-1.78513 L 2.6931738,1.3230147 z M 19.037033,3.6238514 c -0.163168,0.019287 -0.332244,0.073948 -0.476035,0.1586782 A 0.3548813,0.3548813 0 0 0 18.40232,3.9808773 L 14.911399,14.969343 a 0.3548813,0.3548813 0 0 0 0,0.07934 l -0.158678,2.776869 a 0.3548813,0.3548813 0 0 0 0,0.158678 0.3548813,0.3548813 0 0 0 0.03967,0.07934 0.3548813,0.3548813 0 0 0 0.03967,0.03967 0.3548813,0.3548813 0 0 0 0.03967,0.03967 0.3548813,0.3548813 0 0 0 0.03967,0.03967 0.3548813,0.3548813 0 0 0 0.119008,0.03967 0.3548813,0.3548813 0 0 0 0.119009,0 0.3548813,0.3548813 0 0 0 0.03967,0 0.3548813,0.3548813 0 0 0 0.119009,-0.03967 0.3548813,0.3548813 0 0 0 0.03967,-0.03967 0.3548813,0.3548813 0 0 0 0.07934,-0.07934 l 1.388434,-2.221495 a 0.3548813,0.3548813 0 0 0 0.03967,-0.07934 L 20.385797,4.7345988 a 0.3548813,0.3548813 0 0 0 0,-0.1586782 0.3548813,0.3548813 0 0 0 -0.03967,-0.079339 C 20.170636,4.0761439 19.888501,3.7650114 19.552737,3.6635209 19.391998,3.614935 19.200199,3.6045651 19.037033,3.6238514 z M 10.230392,9.0189105 7.8502191,10.84371 9.7543575,12.787518 11.380809,10.208997 10.230392,9.0189105 z m 2.856208,2.9355465 -1.666122,2.538851 2.102487,2.142156 -3.7686075,0 -1.586782,1.190086 A 0.65549998,0.65549998 0 0 1 7.2155063,16.99249 l 0.1983477,-0.357026 -1.7851298,0 0,-4.125633 -0.3570259,0.277687 a 0.65549998,0.65549998 0 0 1 -0.1190087,0.07934 l -2.2611643,0.991739 a 0.65549998,0.65549998 0 0 1 -0.1983478,0.07934 l 0,5.633076 17.8116285,0 -3.173564,-3.252903 -1.309095,2.102486 a 0.68045386,0.68045386 0 0 1 -0.03967,0.03967 c 0.0025,-0.0035 -0.04234,0.0431 -0.03967,0.03967 0.0027,-0.0034 -0.0028,0.04297 0,0.03967 0.0028,-0.0033 -0.04259,0.0031 -0.03967,0 0.003,-0.0031 -0.04272,0.04272 -0.03967,0.03967 0.0031,-0.0031 -0.04285,0.04259 -0.03967,0.03967 0.003,-0.0031 -0.0031,0.04272 0,0.03967 0.0031,-0.0031 -0.04285,0.003 -0.03967,0 0.0031,-0.003 -0.04297,0.04247 -0.03967,0.03967 a 0.68045386,0.68045386 0 0 1 -0.119009,0.07934 c 0.0042,-0.0023 -0.04398,0.04183 -0.03967,0.03967 0.0043,-0.0021 -0.04411,0.0019 -0.03967,0 0.0044,-0.0019 -0.04411,0.04145 -0.03967,0.03967 0.0045,-0.0018 -0.04424,0.0015 -0.03967,0 0.0045,-0.0015 -0.04436,0.0013 -0.03967,0 0.0047,-0.0013 -0.04436,0.04078 -0.03967,0.03967 0.0047,-0.0011 -0.04436,9.02e-4 -0.03967,0 0.0047,-9.03e-4 -0.08417,6.92e-4 -0.07934,0 0.0045,-7.67e-4 -0.04424,5.76e-4 -0.03967,0 0.0061,-3.4e-4 -0.08543,0 -0.07934,0 0.0023,-9.6e-5 -0.02761,-2.54e-4 -0.03967,0 -0.01206,2.53e-4 -0.04196,0 -0.03967,0 0.0045,0 -0.04424,-1.93e-4 -0.03967,0 0.0045,1.92e-4 -0.04424,-3.85e-4 -0.03967,0 0.0045,3.85e-4 -0.04424,-5.76e-4 -0.03967,0 0.0024,3.46e-4 -0.0271,0.0021 -0.03967,0 -0.01257,-0.0021 -0.04208,-4.52e-4 -0.03967,0 0.0047,9.02e-4 -0.04436,-0.0011 -0.03967,0 0.0047,0.0011 -0.04436,-0.04094 -0.03967,-0.03967 0.0047,0.0013 -0.04424,-0.0015 -0.03967,0 0.0045,0.0015 -0.04411,-0.0018 -0.03967,0 0.0045,0.0018 -0.04411,-0.04157 -0.03967,-0.03967 0.0044,0.0019 -0.04398,-0.0021 -0.03967,0 0.0043,0.0021 -0.04385,-0.04196 -0.03967,-0.03967 a 0.68045386,0.68045386 0 0 1 -0.119009,-0.07934 c 0.0033,0.0028 -0.04284,-0.04259 -0.03967,-0.03967 0.0017,0.0014 -0.03116,0.0075 -0.03967,0 0.0031,0.0031 -0.003,-0.04284 0,-0.03967 0.0017,0.0014 -0.03116,0.0075 -0.03967,0 0.0031,0.0031 -0.003,-0.04285 0,-0.03967 0.0015,0.0015 -0.03218,0.0085 -0.03967,0 0.0031,0.0031 -0.003,-0.04285 0,-0.03967 0.003,0.0031 -0.04247,-0.04297 -0.03967,-0.03967 a 0.68045386,0.68045386 0 0 1 -0.03967,-0.03967 c 0.0038,0.0057 -0.04309,-0.08518 -0.03967,-0.07934 0.0034,0.0058 -0.04271,-0.04576 -0.03967,-0.03967 0.0031,0.0061 -0.04232,-0.08556 -0.03967,-0.07934 0.0027,0.0062 -0.0023,-0.04615 0,-0.03967 a 0.68045386,0.68045386 0 0 1 -0.03967,-0.07934 c 0.0014,0.0059 -0.001,-0.0853 0,-0.07934 0.001,0.0059 -6.88e-4,-0.04576 0,-0.03967 6.87e-4,0.0061 -3.46e-4,-0.08543 0,-0.07934 3.43e-4,0.0061 0,-0.04576 0,-0.03967 0,0.0061 3.43e-4,-0.04576 0,-0.03967 -3.46e-4,0.0061 6.87e-4,-0.08543 0,-0.07934 -6.88e-4,0.0061 0.001,-0.04564 0,-0.03967 -0.001,0.0059 0.0014,-0.0853 0,-0.07934 l 0.158678,-2.538851 c 6.79e-4,0.0061 -3.4e-4,-0.08543 0,-0.07934 3.4e-4,0.0061 0,-0.04576 0,-0.03967 0,0.0061 3.4e-4,-0.04576 0,-0.03967 -3.4e-4,0.0061 6.79e-4,-0.08543 0,-0.07934 a 0.68045386,0.68045386 0 0 1 0.03967,-0.119008 l 0.396695,-1.190087 -1.586782,-1.626451 z"
   id="path5958" />
</svg>
